svgs/sharp-regular/house-building.svg

<svg xmlns="http://www.w3.org/2000/svg" viewBox="0 0 640 512"><!--! Font Awesome Pro 6.6.0 by @fontawesome - https://fontawesome.com License - https://fontawesome.com/license (Commercial License) Copyright 2024 Fonticons, Inc. --><path d="M336 48l256 0 0 416-176 0 0 48 176 0 48 0 0-48 0-416 0-48L592 0 336 0 288 0l0 48 0 86.3 48 40L336 48zm80 208l32 0 0-64-64 0 0 22.3 20.5 17.1L416 241l0 15zm0 96l32 0 0-64-32 0 0 64zm64-160l0 64 64 0 0-64-64 0zm64 96l-64 0 0 64 64 0 0-64zM448 96l-64 0 0 64 64 0 0-64zm32 0l0 64 64 0 0-64-64 0zM48 278.5l144-120 144 120L336 464 48 464l0-185.5zM0 256L0 464l0 48 48 0 288 0 48 0 0-48 0-208L192 96 0 256zm240 16l-96 0 0 96 96 0 0-96z"/></svg>

<svg xmlns="http://www.w3.org/2000/svg" viewBox="0 0 640 512"><!--! Font Awesome Pro 6.4.2 by @fontawesome - https://fontawesome.com License - https://fontawesome.com/license (Commercial License) Copyright 2023 Fonticons, Inc. --><path d="M336 48H592V464H416v48H592h48V464 48 0H592 336 288V48v86.3l48 40V48zm80 208h32V192H384v22.3l20.5 17.1L416 241v15zm0 96h32V288H416v64zm64-160v64h64V192H480zm64 96H480v64h64V288zM448 96H384v64h64V96zm32 0v64h64V96H480zM48 278.5l144-120 144 120V464H48V278.5zM0 256V464v48H48 336h48V464 256L192 96 0 256zm240 16H144v96h96V272z"/></svg>
